X:1
T:Title
%%score 1 { ( 2 4 ) | ( 3 5 ) }
L:1/8
Q:1/4=112
M:3/8
K:G
V:1 treble nm="Piano"
V:2 treble nm="Piano"
V:4 treble 
V:3 bass 
V:5 bass 
V:1
"^Vivace" z z/ | z3 | z3 | z3 | z3 | z3 | z3 | z3 | z3 | z3 | z3 | z3 | z3 | z3 | z3 | z3 | z3 | %17
 z3 | z3 | z3 | z3 | z3 | z3 | z3 | z3 | z3 | z3 | z3 | z3 | z3 | z3 | z3 | z3 | z3 | z3 | z3 | %36
 z3 | z3 | z3 | z3 | z3 | z3 | z3 | z3 | z3 | z3 | z3 | z3 | z3 | z3 | z3 | z3 | z3 | z3 | z3 | %55
 z3 | z3 | z3 | z3 | z3 | z3 | z3 | z3 | z3 | z3 | z3 | z3 | z3 | z3 | z3 | z3 | z3 | z3 | z3 | %74
 z3 | z3 | z3 | z3 | z3 | z3 | z3 | z3 | z3 | z3 | z3 | z3 | z3 | z3 | z3 | z3 | z3 | z3 | z3 | %93
 z3 | z3 |: z3 | z3 | z3 | z3 | z3 | z3 | z3 | z3 | z3 | z3 | z3 | z3 | z3 | z3 | z3 | z3 | z3 | %112
 z3 | z3 | z3 | z3 | z3 |1 z3 | z3 :|2 z3 | z3 | z3 | z3 | z3 | z3 | z3 | z3 | z3 | z3 | z3 | z3 | %131
 z3 | z3 | z3 | z3 | z3 | z3 | z3 | z3 | z3 | z3 | z3 | z3 | z3 | z3 | z3 | z3 | z3 | z3 | z3 | %150
 z3 | z3 | z3 | z3 | z3 | z3 | z3 | z3 | z3 | z3 | z3 | z3 | z3 | z3 | z3 | z3 | z3 | z3 | z3 | %169
 z3 | z3 | z3 | z3 | z3 | z3 |"^ossia" (f/g/e/f/^d/f'/ | e/f/!courtesy!=d/e/^c/e'/) | z3 | z3 | %179
"^ossia" (F/G/E/F/^D/f/ | E/F/!courtesy!=D/E/^C/e/) | z3 | z3 | z3 | z3 | z3 | z3 | z3 | z3 | z3 | %190
 z3 | z3 | z3 | z3 | z3 | z3 | z3 | z3 | z3 | z3 | z3 | z3 | z3 | z3 | z3 | z3 | z3 | z3 | z3 | %209
 z3 | z3 | z3 | z3 | z3 | z3 | z3 | z3 | z3 | z3 | z3 | z3 | z3 | z3 | z3 | z3 | z3 | z3 | z3 | %228
 z3 | z3 | z3 |] %231
V:2
!p! (b/a/g/ |!<(! f/g/!<)!e/f/^d/b/ | e/f/!courtesy!=d/e/^c/a/ | g/B/^A/f/=A/^d/ | %4
!>(! [Ge]/d/c/B/A/G/)!>)! | (F/G/E/F/^D/B/ | E/F/!courtesy!=D/E/^C/A/ | B/B,/^A,/F/=A,/^D/ | %8
 [G,E]3) |!<(! (B,/B/B,/B/!<)!B,/B/ | B,/B/B,/B/B,/B/ | B,/B/B,/B/B,/B/) |!>(! [B,E]3!>)! | %13
!<(! (B,/B/B,/B/B,/B/!<)! | B,/B/B,/B/B,/B/ | B,/B/^C/^c/^D/^d/ | [EGe]3) |!<(! (B/b/B/b/B/b/!<)! | %18
 B/b/B/b/B/b/ | B/b/B/b/B/b/) | [Be]3 | (B/b/B/b/B/b/ | B/b/B/b/B/b/ | B/b/^c/^c'/^d/^d'/ | %24
 [ege']) z/!p! (D/E/F/ | G/D/G/A/D/A/ | B/D/B/c/D/c/ | d/D/d/e/D/^c/ | d/D/d/e/D/^c/ | %29
 d/B/g/e/d/c/ | B/G/e/B/A/G/) | (F/_E/_e/_B/F/E/ |!>(! [_Bd]/A/[FB]/!courtesy!=E/[_EF]/D/!>)! | %33
!p! G/D/G/A/D/A/ | B/D/B/c/D/c/ | d/D/d/e/D/^c/ |!<(! d/D/G/D/A/E/)!<)! |!p! (B/F/B/^c/F/c/ | %38
 ^d/F/d/e/F/e/ |!<(! f/F/f/g/F/e/!<)! | f/F/f/g/F/e/) |!p! (f/F/B/^c/F/c/ | ^d/F/d/e/F/e/) | %43
 (f/F/f/g/F/e/ | f/F/f/g/F/e/) |"_cresc." (f/g/e/f/g/e/ | f/g/e/f/g/e/) |!mf! (f/b/g/f'/f/b/ | %48
 g/f'/f/b/g/f'/) | (f/b/g/f'/b/g'/ |!8va(! f'/b'/g'/f''/b'/b''/ | f''/g''/b'/f''/g'/b'/!8va)! | %52
"_dim." f'/g'/b/f'/g/b/) | (c'/b/c'/b/c'/b/ |!>(! c'/b/c'/b/c'/b/)!>)! |!pp! (f/g/e/f/^d/b/ | %56
!<(! e/f/!courtesy!=d/e/^c/a/!<)! | g/B/^A/f/=A/^d/ |!>(! [Ge]/d/c/B/A/G/)!>)! | (F/G/E/F/^D/B/ | %60
 E/F/!courtesy!=D/E/^C/A/) | (G/B,/^A,/F/=A,/^D/ | [G,E]3) |!p!!<(! (B,/B/B,/B/B,/B/!<)! | %64
 B,/B/B,/B/B,/B/ |!>(! B,/B/B,/B/B,/B/!>)! | [B,E]3) |!<(! (B,/B/B,/B/B,/B/!<)! | B,/B/B,/B/B,/B/ | %69
 B,/B/^C/^c/^D/^d/ | [EGe]3) |!<(! (B/b/B/b/B/b/!<)! | B/b/B/b/B/b/ |!>(! B/b/B/b/B/b/!>)! | %74
 [Be]3) |!mf! (B/b/^c/^c'/"_cresc."^d/^d'/ | e/e'/f/f'/g/g'/ |!8va(! b/b'/^c'/^c''/^d'/^d''/ | %78
!f! [e'g'e''])!8va)! z/!mf!"^[Un poco meno mosso]" E/G/c/ | .[EGe].[EGe].[EGe] | %80
 ([DEGd]/^c/d/c/d/c/) | .[CE!courtesy!=c].[CEc].[CEc] | !tenuto![B,EB]3 |!p! .[CEA].[CEA].[CEA] | %84
 ([B,EG]/F/G/F/G/F/) | .[A,EF]([A,EF]/!>(!G/[A,^DF] | [G,B,E])!>)! z/!mf! (E/G/c/ | [EGe]g/f/g) | %88
 ([DEGd]/f/g/f/g/f/) | ([EAc]e/^d/e) | (!tenuto![B,EGB]2 e) |!p! ([CEA]c/B/c) | %92
 ([B,EG]/B/^A/B/A/B/) |!>(! .[A,EF]([A,EF]/G/[A,^DF]!>)! | [G,B,E]) z/!<(! (B,/^C/^D/!<)! |: %95
!mf! .[A,!courtesy!=CE]).[A,CE].[A,CF] |!>(! (!tenuto!G2 D)!>)! |!p! .[A,CE].[A,CE].[A,CF] | %98
 .[B,G].[_B,DG]!>![C_E_B] |"_cresc." .[_B,_D=F_B].[B,DFB]!>![^D^F^c] | .[^CE^G^c].[CEGc]!>![FAe] | %101
!<(! .[E!courtesy!=GBe].[GBg].[FBf]!<)! |!>(! (!tenuto![GBg]2 [=FGB=f])!>)! | %103
!mf! .[EGe].[EGe].[EGe] | ([DEGd]/^c/d/c/d/c/) | .[CE!courtesy!=c].[CEc].[CEc] | !tenuto![B,EB]3 | %107
!p! .[CEA].[CEA].[CEA] | ([B,EG]/F/G/F/G/F/) | .[A,EF]!>(!([A,EF]/G/[A,^DF]!>)! | %110
 [G,B,E]) z/ (E/G/c/ |!mf! [EGe]g/f/g) | ([DEGd]/f/g/f/g/f/) | ([EAc]e/^d/e) | %114
 (!tenuto![B,EGB]2 e) |!p! ([CEA]c/B/c) | ([B,EG]/B/^A/B/A/B/) |1 %117
 .[A,EF]!>(!([A,EF]/G/[A,^DF]!>)! | [G,B,E]) z/ (B,/^C/^D/) :|2 .[CEF]"^rit."([CEF]/G/[G,^CE] | %120
 !fermata![F,B,^D]) z/"^[Tempo I]" (b/a/g/ | f/g/e/f/^d/b/ |!<(! e/f/!courtesy!=d/e/^c/a/!<)! | %123
 g/B/^A/f/=A/^d/ |!>(! [Ge]/d/c/B/A/G/)!>)! | (F/G/E/F/^D/B/ |!<(! E/F/!courtesy!=D/E/^C/A/!<)! | %127
 B/B,/^A,/F/=A,/^D/ |!>(! [G,E]3)!>)! | (B,/B/B,/B/B,/B/ | B,/B/B,/B/B,/B/ | B,/B/B,/B/B,/B/ | %132
!>(! [B,E]3)!>)! |!<(! (B,/B/B,/B/B,/B/!<)! | B,/B/B,/B/B,/B/ | B,/B/^C/^c/^D/^d/ | [EGe]3) | %137
!<(! (B/b/B/b/B/b/!<)! | B/b/B/b/B/b/ |!>(! B/b/B/b/B/b/!>)! | [Be]3) |!<(! (B/b/B/b/B/b/!<)! | %142
 B/b/B/b/B/b/ | B/b/^c/^c'/^d/^d'/ | [ege']) z/!p! (D/E/F/ | G/D/G/A/D/A/ | B/D/B/c/D/c/ | %147
 d/D/d/e/D/^c/ | d/D/d/e/D/^c/) | (d/B/g/e/d/c/ | B/G/e/B/A/G/ | F/_E/_e/_B/F/E/ | %152
!>(! [_Bd]/A/[FB]/!courtesy!=E/[_EF]/D/)!>)! |!p! (G/D/G/A/D/A/ | B/D/B/c/D/c/ | d/D/d/e/D/^c/ | %156
!<(! d/D/G/D/A/E/)!<)! |!p! (B/F/B/^c/F/c/ | ^d/F/d/e/F/e/ | f/F/f/g/F/e/ | f/F/f/g/F/e/) | %161
!p! (f/F/B/^c/F/c/ | ^d/F/d/e/F/e/ | f/F/f/g/F/e/ | f/F/f/g/F/e/) |"_cresc." (f/g/e/f/g/e/ | %166
 f/g/e/f/g/e/) |!mf! (f/b/g/f'/f/b/) | (g/f'/f/b/g/f'/ | f/b/g/f'/b/g'/ | %170
!8va(! f'/b'/g'/f''/b'/b''/ | f''/g''/b'/f''/g'/b'/!8va)! |"_dim." f'/g'/b/f'/g/b/) | %173
 (c'/b/c'/b/c'/b/ |!>(! c'/b/c'/b/c'/b/)!>)! |!pp! (f/g/e/f/^d/b/ | e/f/!courtesy!=d/e/^c/a/ | %177
 g/B/^A/f/=A/^d/ | [Ge]/d/c/B/A/G/) | (F/G/E/F/^D/B/ | E/F/!courtesy!=D/E/^C/A/) | %181
 (G/B,/^A,/F/=A,/^D/ | [G,E]3) |!p! (B,/B/B,/B/B,/B/ | B,/B/B,/B/B,/B/ | B,/B/B,/B/B,/B/ | %186
 [B,E]3) | (B,/B/B,/B/B,/B/ | B,/B/B,/B/B,/B/ | B,/B/^C/^c/^D/^d/ | [EGe]3) |!mf! (B/b/B/b/B/b/ | %192
 B/b/B/b/B/b/ | B/b/B/b/B/b/ | [Be]3) | (B/b/^c/^c'/"_cresc."^d/^d'/ | e/e'/f/f'/g/g'/ | %197
!8va(! b/b'/^c'/^c''/^d'/^d''/ |!f! [e'g'e'']) z/"^[Un poco meno mosso]" (e'/g'/b'/ | %199
!ff! [e'e''])[e'g'b'e''][e'g'b'e''] | ([d'e'g'd'']/^c''/d''/c''/d''/c''/) | %201
 [c'!courtesy!=c''][c'e'g'c''][c'e'g'c''] | [be'g'b']3 | [a^c'e'a'][ac'e'a'][ac'e'a'] | %204
 ([ga^c'g']/f'/g'/f'/g'/f'/) | [ga=c'^d'g']g'/f'/[=f=f'] | [egbe']3!8va)! | %207
!ff! [egbe'][egbe'][egbe'] | ([degd']/^c'/d'/c'/d'/c'/) | [c!courtesy!=c'][cegc'][cegc'] | %210
 [Begb]3 | [A^cea][Acea][Acea] | ([GA^cg]/f/g/f/g/f/) | ([GA=c^dg]g/f/[=F=f]) | [EGBe]3 | %215
"^Più mosso"!pp! [B,B][B,B][B,B] | [B,B][B,B][B,B] | [B,B][B,B][B,B] | [B,EB]3 | [B,B][B,B][B,B] | %220
 [B,B][B,B][B,B] | [B,B][^C^c][^D^d] | [EGe]3 |!p! [Bb][Bb][Bb] |"_cresc." [Bb][Bb][Bb] | %225
 [Bb][Bb][Bb] |!mf! [Beb]3 |"_cresc." [Bb][^c^c'][^d^d'] | [ee'][ff'][gg'] | %229
"^[senza rit.]"!8va(! [bb'][^c'^c''][^d'^d''] |!ff! !>![e'g'e'']!8va)! z/ z/ z |] %231
V:3
 z z/ | (AB,E,) | (GB,E,) | (^DCE,) | (EB,E,) | (A,B,,E,,) | (G,B,,E,,) | (^D,C,E,,) | %8
 (E,/B,,/E,,/!>(!B,,/E,/G,/)!>)! | (F,/B,,/G,/B,,/A,/B,,/ | G,/B,,/A,/B,,/B,/B,,/ | %11
 F,/B,,/G,/B,,/A,/B,,/ | G,/B,,/E,,/B,,/E,/G,/) | (F,/B,,/G,/B,,/A,/B,,/ | G,/B,,/A,/B,,/B,/B,,/ | %15
 F,/B,,/G,/B,,/A,/B,,/ | G,/B,,/E,,/B,,/G,) | (F/B,/G/B,/A/B,/ | G/B,/A/B,/B/B,/ | %19
 F/B,/G/B,/A/B,/ | G/B,/E,/B,/E/G/) | (F/B,/G/B,/A/B,/ | G/B,/A/B,/B/B,/ | F/B,/G/B,/A) | %24
 [E,B,G] z/ z3/2 | (B,D,G,,) | (CD,G,,) | B,[G,,D,]^A, | B,[G,,D,]^A, | (B,[G,,D,]) z | %30
 (C[G,,D,]) z | (C_E,G,,) | (CD,G,,) | (B,D,G,,) | (CD,G,,) | B,[G,,D,]^A, | (B,[G,,D,][C,F,]) | %37
 !>!^D[B,,F,]^A, | B,[B,,F,]^C | z z [B,,F,] | z z [B,,F,] | !>!^D[B,,F,]^A, | B,[B,,F,]^C | %43
 z z [B,,F,] | z z [B,,F,]- | [B,,F,]3- | [B,,F,]3 |[K:treble] B,3- | B,3 | B,3- | B,3- | B,3- | %52
 B,3- | B,3- | B, z z |[K:bass] (AB,E,) | (GB,E,) | (^DCE,) | (EB,E,) | (A,B,,E,,) | (G,B,,E,,) | %61
 (^D,C,E,,) | (E,/B,,/E,,/B,,/E,/G,/) | (F,/B,,/G,/B,,/A,/B,,/ | G,/B,,/A,/B,,/B,/B,,/ | %65
 F,/B,,/G,/B,,/A,/B,,/ | G,/B,,/E,,/B,,/E,/G,/) | (F,/B,,/G,/B,,/A,/B,,/ | G,/B,,/A,/B,,/B,/B,,/ | %69
 F,/B,,/G,/B,,/A,/B,,/ | G,/B,,/E,,/B,,/G,) | (F/B,/G/B,/A/B,/ | G/B,/A/B,/B/B,/ | %73
 F/B,/G/B,/A/B,/ | G/B,/E,/B,/E/G/) | (F/B,/G/B,/A/B,/ | G/B,/B/B,/B,/B,,/ | %77
 B,/B,,/B,,/B,,,/B,,/)B,,,/ | [E,,,E,,] z/ z3/2 | .[C,G,C].[C,G,C].[C,G,C] | %80
 ([B,,G,B,]/^A,/B,/A,/B,/A,/) | .[A,,E,!courtesy!=A,].[A,,E,A,].[A,,E,A,] | !tenuto![G,,E,G,]3 | %83
 .[F,,E,].[F,,E,].[F,,E,] | ([G,,E,]/^D,/E,/D,/E,/F,/) | .C,.C,(B,,- | [E,,B,,]) z z | %87
 ([C,G,C]E/^D/E) | ([B,,G,B,]/^D/E/D/E/D/) | ([A,,E,A,]C/B,/C) | (!tenuto![G,,E,G,]2 B,) | %91
 ([F,,E,]A,/^G,/A,) | ([G,,E,]/G,/F,/G,/F,/G,/) | .C,.C,([B,,,B,,] | [E,,,E,,]) z z |: %95
 .[A,,E,].[A,,E,].[D,,D,] | (!tenuto!G,,2 B,,) | .[A,,E,].[A,,E,].[D,,D,] | %98
 .[G,,D,].[G,,D,]!>![=F,,=F,] | .[_B,,=F,].[B,,F,]!>![^G,,^G,] | .[^C,^G,].[C,G,]!>![B,,B,] | %101
 .[E,B,].[E,B,E].[^D,B,^D] | (!tenuto![!courtesy!=D,G,!courtesy!=D]2 [_D,G,_D]) | %103
 .[C,G,C].[C,G,C].[C,G,C] | ([B,,G,B,]/^A,/B,/A,/B,/A,/) | %105
 .[A,,E,!courtesy!=A,].[A,,E,A,].[A,,E,A,] | !tenuto![G,,E,G,]3 | .[F,,E,].[F,,E,].[F,,E,] | %108
 ([G,,E,]/^D,/E,/D,/E,/F,/) | .C,.C,(B,,- | [E,,B,,]) z z | ([C,G,C]E/^D/E) | %112
 ([B,,G,B,]/^D/E/D/E/D/) | ([A,,E,A,]C/B,/C) | (!tenuto![G,,E,G,]2 B,) | ([F,,E,]A,/^G,/A,) | %116
 ([G,,E,]/G,/F,/G,/F,/G,/) |1 .C,.C,([B,,,B,,] | [E,,,E,,]) z z :|2 .[A,,F,].[A,,F,]([^A,,,^A,,] | %120
 !fermata![B,,,B,,]) z z | (AB,E,) | (GB,E,) | (^DCE,) | (EB,E,) | (A,B,,E,,) | (G,B,,E,,) | %127
 (^D,C,E,,) | (E,/B,,/E,,/B,,/E,/G,/) | (F,/B,,/G,/B,,/A,/B,,/ | G,/B,,/A,/B,,/B,/B,,/ | %131
 F,/B,,/G,/B,,/A,/B,,/ | G,/B,,/E,,/B,,/E,/G,/) | (F,/B,,/G,/B,,/A,/B,,/ | G,/B,,/A,/B,,/B,/B,,/ | %135
 F,/B,,/G,/B,,/A,/B,,/ | G,/B,,/E,,/B,,/G,) | F/B,/G/B,/A/B,/ | G/B,/A/B,/B/B,/ | F/B,/G/B,/A/B,/ | %140
 G/B,/E,/B,/E/G/ | F/B,/G/B,/A/B,/ | G/B,/A/B,/B/B,/ | F/B,/G/B,/A | G z z | (B,D,G,,) | (CD,G,,) | %147
 B,[G,,D,]^A, | B,[G,,D,]^A, | (B,[G,,D,]) z | (C[G,,D,]) z | (C_E,G,,) | (CD,G,,) | (B,D,G,,) | %154
 (CD,G,,) | B,[G,,D,]^A, | (B,[G,,D,][C,F,]) | !>!^D[B,,F,]^A, | B,[B,,F,]^C | z z [B,,F,] | %160
 z z [B,,F,] | ^D[B,,F,]^A, | B,[B,,F,]^C | z z [B,,F,] | z z [B,,F,]- | [B,,F,]3- | [B,,F,]3 | %167
[K:treble] B,3- | B,3 | B,3- | B,3- | B,3- | B,3- | B,3- | B, z z |[K:bass] (AB,E,) | (GB,E,) | %177
 (^DCE,) | (EB,E,) | (A,B,,E,,) | (G,B,,E,,) | (^D,C,E,,) | (E,/B,,/E,,/B,,/E,/G,/) | %183
 (F,/B,,/G,/B,,/A,/B,,/ | G,/B,,/A,/B,,/B,/B,,/ | F,/B,,/G,/B,,/A,/B,,/ | G,/B,,/E,,/B,,/E,/G,/) | %187
 (F,/B,,/G,/B,,/A,/B,,/ | G,/B,,/A,/B,,/B,/B,,/ | F,/B,,/G,/B,,/A,/B,,/ | G,/B,,/E,,/B,,/G,) | %191
 (F/B,/G/B,/A/B,/ | G/B,/A/B,/B/B,/ | F/B,/G/B,/A/B,/ | G/B,/E,/B,/E/G/) | (F/B,/G/B,/A/B,/ | %196
 G/B,/B/B,/B,/B,,/ | B,/B,,/B,,/B,,,/B,,/)B,,,/ | [E,,,E,,] z z | ([E,,,E,,][G,E][B,G] | %200
 [B,G][K:treble]e[K:bass][B,E]) | (^A[^A,E][EA]) | ([B,EGB]G,B,,) | ([E,,,E,,][^C,G,A,]E | %204
 [G,A,^C]G[G,A,C]) | ([A,^DG]A,!courtesy!=C,) | ([G,B,EG]G,B,,) | ([E,,,E,,][B,,G,]B, | %208
 [G,E][B,G][G,E]) | (^A[^A,E][EA]) | ([B,EGB]G,B,,) | ([E,,,E,,][^C,G,A,]E | [G,A,^C]G[G,A,C]) | %213
 ([A,^D]A,!courtesy!=C,) | ([G,B,]B,,E,,) | [B,,F,][B,,G,][E,,B,,] | B,,[B,,A,][E,,B,,] | %217
 B,,[B,,G,][E,,B,,] | [B,,G,][E,,B,,][B,,G,] | [B,,F,][B,,G,][E,,B,,] | B,,[B,,A,][E,,B,,] | %221
 [B,,F,][E,,B,,][B,,A,] | [E,,B,,][B,,G,][G,B,] | [B,F][B,G][E,B,] | B,[B,A][E,B,] | %225
 B,[B,G][E,B,] | [B,G][E,B,][B,G] | [B,E][E,B,][B,,B,] | [E,B,][B,,B,][E,,E,] | %229
 [B,,F,][E,,B,,][B,,,B,,] | !>![E,,,E,,] z/ z/ z |] %231
V:4
 x3/2 | x3 | x3 | x3 | x3 | x3 | x3 | x3 | x3 | ^DEF | EFG | ^DEF | x3 | ^DEF | EFG | ^DEF | x3 | %17
 ^def | efg | ^def | x3 | ^def | efg | ^def | x3 | x3 | x3 | x3 | x3 | x3 | x3 | x3 | x3 | x3 | %34
 x3 | x3 | x3 | x3 | x3 | x3 | x3 | x3 | x3 | x3 | x3 | x3 | x3 | x3 | x3 | x3 |!8va(! x3 | %51
 x3!8va)! | x3 | x3 | x3 | x3 | x3 | x3 | x3 | x3 | x3 | x3 | x3 | ^DEF | EFG | ^DEF | x3 | ^DEF | %68
 EFG | ^DEF | x3 | ^def | efg | ^def | x3 | ^def | gab |!8va(! ^d'e'f' | x!8va)! x2 | x3 | x3 | %81
 x3 | x3 | x3 | x3 | x3 | x3 | x3 | x3 | x3 | x3 | x3 | x3 | x3 | x3 |: x3 | B,3 | x3 | x3 | x3 | %100
 x3 | x3 | x3 | x3 | x3 | x3 | x3 | x3 | x3 | x3 | x3 | x3 | x3 | x3 | x3 | x3 | x3 |1 x3 | x3 :|2 %119
 x3 | x3 | x3 | x3 | x3 | x3 | x3 | x3 | x3 | x3 | ^DEF | EFG | ^DEF | x3 | ^DEF | EFG | ^DEF | %136
 x3 | ^def | efg | ^def | x3 | ^def | efg | ^def | x3 | x3 | x3 | x3 | x3 | x3 | x3 | x3 | x3 | %153
 x3 | x3 | x3 | x3 | x3 | x3 | x3 | x3 | x3 | x3 | x3 | x3 | x3 | x3 | x3 | x3 | x3 |!8va(! x3 | %171
 x3!8va)! | x3 | x3 | x3 | x3 | x3 | x3 | x3 | x3 | x3 | x3 | x3 | (^DEF | EFG | ^DEF) | x3 | %187
 ^DEF | EFG | ^DEF | x3 | ^def | efg | ^def | x3 | ^def | gab |!8va(! ^d'e'f' | x3 | x3 | x3 | x3 | %202
 x3 | x3 | x3 | x3 | x3!8va)! | x3 | x3 | x3 | x3 | x3 | x3 | x3 | x3 | ^DEF | EFG | ^DEF | x3 | %219
 ^DEF | EFG | ^DEF | x3 | ^def | efg | ^def | x3 | ^def | gab |!8va(! ^d'e'f' | x!8va)! x2 |] %231
V:5
 x3/2 | x3 | x3 | x3 | x3 | x3 | x3 | x3 | x3 | F,G,A, | G,A,B, | F,G,A, | G,3 | F,G,A, | G,A,B, | %15
 F,G,A, | G,3 | FGA | GAB | FGA | G3 | FGA | GAB | FGA | x3 | x3 | x3 | (B,2 ^A,) | (B,2 ^A,) | %29
 x3 | x3 | x3 | x3 | x3 | x3 | (B,2 ^A,) | x3 | (^D2 ^A,) | (B,2 ^C) | (^DE^C) | (^DE^C) | %41
 (^D2 ^A,) | (B,2 ^C) | (^DE^C) | (^DE^C) | (^D/E/^C/D/E/C/ | ^D/E/^C/D/E) | %47
[K:treble] ^D/B/E/c/D/B/ | E/c/^D/B/E/c/ | [^DB]3- | [DB]3 | !tenuto![FB^df]3- | [FBdf]3- | %53
 [FBdf]3- | [FBdf] x2 |[K:bass] x3 | x3 | x3 | x3 | x3 | x3 | x3 | x3 | F,G,A, | G,A,B, | F,G,A, | %66
 G,3 | F,G,A, | G,A,B, | F,G,A, | G,3 | FGA | GAB | FGA | G3 | FGA | G x2 | x3 | x3 | x3 | x3 | %81
 x3 | x3 | x3 | x3 | x3 | x3 | x3 | x3 | x3 | x3 | x3 | x3 | x3 | x3 |: x3 | D,3 | x3 | x3 | x3 | %100
 x3 | x3 | x3 | x3 | x3 | x3 | x3 | x3 | x3 | x3 | x3 | x3 | x3 | x3 | x3 | x3 | x3 |1 x3 | x3 :|2 %119
 x3 | x3 | x3 | x3 | x3 | x3 | x3 | x3 | x3 | x3 | F,G,A, | G,A,B, | F,G,A, | G,3 | F,G,A, | %134
 G,A,B, | F,G,A, | G,3 | FGA | GAB | FGA | G3 | FGA | GAB | FGA | [E,B,G] x2 | x3 | x3 | %147
 (B,2 ^A,) | (B,2 ^A,) | x3 | x3 | x3 | x3 | x3 | x3 | (B,2 ^A,) | x3 | (^D2 ^A,) | (B,2 ^C) | %159
 (^DE^C) | (^DE^C) | (^D2 ^A,) | (B,2 ^C) | (^DE^C) | (^DE^C) | (^D/E/^C/D/E/C/ | ^D/E/^C/D/E) | %167
[K:treble] (^D/B/E/c/D/B/) | (E/c/^D/B/E/c/) | [^DB]3- | [DB]3 | !tenuto![FB^df]3- | [FBdf]3- | %173
 [FBdf]3- | [FBdf] x2 |[K:bass] x3 | x3 | x3 | x3 | x3 | x3 | x3 | x3 | F,G,A, | G,A,B, | F,G,A, | %186
 G,3 | F,G,A, | G,A,B, | F,G,A, | G,3 | FGA | GAB | FGA | G3 | FGA | G x2 | x3 | x3 | x3 | %200
 x[K:treble] x[K:bass] x | x3 | x3 | x3 | x3 | x3 | x3 | x3 | x3 | x3 | x3 | x3 | x3 | x3 | x3 | %215
 F,G,A, | G,A,B, | F,G,A, | x3 | F,G,A, | G,A,B, | x3 | x3 | FGA | GAB | FGA | x3 | x3 | x3 | x3 | %230
 x3 |] %231

